assets/icons/btAddToCart.svg

<svg width="40" height="40" viewBox="0 0 40 40" fill="none" xmlns="http://www.w3.org/2000/svg">
<circle cx="20" cy="20" r="20" fill="#ACD9B2"/>
<path d="M9 10C8.44772 10 8 10.4477 8 11C8 11.5523 8.44772 12 9 12V10ZM11.2222 11L12.2026 10.8029C12.1087 10.3359 11.6985 10 11.2222 10V11ZM10.6863 13.4076C10.7952 13.9491 11.3223 14.2997 11.8638 14.1909C12.4052 14.082 12.7559 13.5548 12.647 13.0134L10.6863 13.4076ZM13.4444 21.0525C12.8922 21.0525 12.4444 21.5002 12.4444 22.0525C12.4444 22.6048 12.8922 23.0525 13.4444 23.0525V21.0525ZM24.5556 22.0525V23.0525C24.9336 23.0525 25.2793 22.8394 25.449 22.5016L24.5556 22.0525ZM29 13.2105L29.8935 13.6596C30.0493 13.3496 30.0333 12.981 29.8512 12.6857C29.6691 12.3903 29.347 12.2105 29 12.2105V13.2105ZM11.6667 12.2105C11.1144 12.2105 10.6667 12.6582 10.6667 13.2105C10.6667 13.7628 11.1144 14.2105 11.6667 14.2105V12.2105ZM12.4641 22.2496C12.5729 22.7911 13.1001 23.1418 13.6416 23.0329C14.183 22.924 14.5337 22.3969 14.4248 21.8554L12.4641 22.2496ZM12.647 13.0134C12.5382 12.4719 12.011 12.1213 11.4696 12.2301C10.9281 12.339 10.5774 12.8662 10.6863 13.4076L12.647 13.0134ZM14.1497 22.7615C14.5412 22.372 14.5429 21.7388 14.1534 21.3473C13.7639 20.9557 13.1308 20.9541 12.7392 21.3436L14.1497 22.7615ZM10.8967 24.5869L10.1914 23.8779L10.8967 24.5869ZM24.5556 27.4735C25.1078 27.4735 25.5556 27.0258 25.5556 26.4735C25.5556 25.9213 25.1078 25.4735 24.5556 25.4735V27.4735ZM24.5556 26.4735H23.5556C23.5556 26.7397 23.6616 26.9948 23.8503 27.1825L24.5556 26.4735ZM26.7778 28.684L26.0725 29.393C26.2599 29.5794 26.5135 29.684 26.7778 29.684V28.684ZM15.6667 28.684L14.8018 28.1821C14.7133 28.3345 14.6667 28.5077 14.6667 28.684H15.6667ZM15.6667 30.8945H14.6667C14.6667 31.0709 14.7133 31.244 14.8018 31.3965L15.6667 30.8945ZM9 12H11.2222V10H9V12ZM10.2418 11.1971L10.6863 13.4076L12.647 13.0134L12.2026 10.8029L10.2418 11.1971ZM13.4444 23.0525H24.5556V21.0525H13.4444V23.0525ZM25.449 22.5016L29.8935 13.6596L28.1065 12.7614L23.6621 21.6034L25.449 22.5016ZM29 12.2105H11.6667V14.2105H29V12.2105ZM14.4248 21.8554L12.647 13.0134L10.6863 13.4076L12.4641 22.2496L14.4248 21.8554ZM12.7392 21.3436L10.1914 23.8779L11.6019 25.2958L14.1497 22.7615L12.7392 21.3436ZM10.1914 23.8779C8.85112 25.2111 9.81103 27.4735 11.6822 27.4735V25.4735C11.6421 25.4735 11.6255 25.4635 11.6173 25.4578C11.6047 25.4489 11.5894 25.4322 11.5789 25.407C11.5684 25.3817 11.5678 25.3602 11.57 25.3471C11.5714 25.3395 11.5748 25.3228 11.6019 25.2958L10.1914 23.8779ZM11.6822 27.4735H24.5556V25.4735H11.6822V27.4735ZM25.5556 26.4735C25.5556 25.81 26.0978 25.263 26.7778 25.263V23.263C25.0032 23.263 23.5556 24.6954 23.5556 26.4735H25.5556ZM26.7778 25.263C27.4578 25.263 28 25.81 28 26.4735H30C30 24.6954 28.5524 23.263 26.7778 23.263V25.263ZM28 26.4735C28 27.1371 27.4578 27.684 26.7778 27.684V29.684C28.5524 29.684 30 28.2516 30 26.4735H28ZM27.483 27.9751L25.2608 25.7646L23.8503 27.1825L26.0725 29.393L27.483 27.9751ZM16.5315 29.186C16.8068 28.7119 17.3711 28.4771 17.9088 28.6204L18.4239 26.6878C17.0185 26.3133 15.5324 26.9233 14.8018 28.1821L16.5315 29.186ZM17.9088 28.6204C18.4456 28.7635 18.8134 29.2451 18.8134 29.7893H20.8134C20.8134 28.3325 19.8301 27.0627 18.4239 26.6878L17.9088 28.6204ZM18.8134 29.7893C18.8134 30.3335 18.4456 30.8151 17.9088 30.9582L18.4239 32.8907C19.8301 32.5159 20.8134 31.2461 20.8134 29.7893H18.8134ZM17.9088 30.9582C17.3711 31.1015 16.8068 30.8667 16.5315 30.3926L14.8018 31.3965C15.5324 32.6553 17.0185 33.2653 18.4239 32.8907L17.9088 30.9582ZM16.6667 30.8945V28.684H14.6667V30.8945H16.6667Z" fill="white"/>
<circle cx="29" cy="13" r="6" fill="white"/>
<path d="M31.5263 12.5263H29.4737V10.4737C29.4737 10.2147 29.2653 10 29 10C28.7411 10 28.5263 10.2084 28.5263 10.4737V12.5263H26.4737C26.2147 12.5263 26 12.7347 26 13C26 13.1326 26.0505 13.2463 26.1389 13.3347C26.2274 13.4232 26.3411 13.4737 26.4737 13.4737H28.5263V15.5263C28.5263 15.6589 28.5768 15.7726 28.6653 15.8611C28.7537 15.9495 28.8674 16 29 16C29.2589 16 29.4737 15.7916 29.4737 15.5263V13.4737H31.5263C31.7853 13.4737 32 13.2653 32 13C32 12.7411 31.7916 12.5263 31.5263 12.5263Z" fill="#ACD9B2" stroke="#ACD9B2"/>
</svg>

<svg id="Capa_1" data-name="Capa 1" xmlns="http://www.w3.org/2000/svg" viewBox="0 0 40 40"><defs><style>.cls-1{fill:#004c00;}.cls-2{fill:#fff;}.cls-3{fill:#acd9b2;stroke:#004c00;}</style></defs><circle class="cls-1" cx="20" cy="20" r="20"/><path class="cls-2" d="M9,10a1,1,0,0,0,0,2Zm2.22,1,1-.2a1,1,0,0,0-1-.8Zm-.53,2.41a1,1,0,0,0,2-.4Zm2.75,7.64a1,1,0,0,0,0,2Zm11.12,1v1a1,1,0,0,0,.89-.55ZM29,13.21l.89.45A1,1,0,0,0,29,12.21Zm-17.33-1a1,1,0,0,0,0,2Zm.79,10a1,1,0,0,0,1.18.78,1,1,0,0,0,.78-1.17ZM12.65,13a1,1,0,1,0-2,.4Zm1.5,9.75a1,1,0,0,0-1.41-1.42ZM10.9,24.59l-.71-.71Zm13.66,2.88a1,1,0,1,0,0-2Zm0-1h-1a1,1,0,0,0,.29.71Zm2.22,2.21-.71.71a1,1,0,0,0,.71.29Zm-11.11,0-.87-.5a1,1,0,0,0-.13.5Zm0,2.21h-1a1,1,0,0,0,.13.51ZM9,12h2.22V10H9Zm1.24-.8.45,2.21,2-.4L12.2,10.8Zm3.2,11.85H24.56v-2H13.44Zm12-.55,4.44-8.84-1.78-.9L23.66,21.6ZM29,12.21H11.67v2H29ZM14.42,21.86,12.65,13l-2,.4,1.77,8.84Zm-1.68-.52-2.55,2.54L11.6,25.3l2.55-2.54Zm-2.55,2.54a2.1,2.1,0,0,0,1.49,3.59v-2h-.06a.1.1,0,0,1,0-.05.18.18,0,0,1,0-.06.05.05,0,0,1,0-.05Zm1.49,3.59H24.56v-2H11.68Zm13.88-1a1.22,1.22,0,0,1,1.22-1.21v-2a3.22,3.22,0,0,0-3.22,3.21Zm1.22-1.21A1.22,1.22,0,0,1,28,26.47h2a3.22,3.22,0,0,0-3.22-3.21ZM28,26.47a1.21,1.21,0,0,1-1.22,1.21v2A3.22,3.22,0,0,0,30,26.47ZM27.48,28l-2.22-2.22-1.41,1.42,2.22,2.21ZM16.53,29.19a1.23,1.23,0,0,1,1.38-.57l.51-1.93a3.22,3.22,0,0,0-3.62,1.49Zm1.38-.57a1.21,1.21,0,0,1,.9,1.17h2a3.2,3.2,0,0,0-2.39-3.1Zm.9,1.17a1.21,1.21,0,0,1-.9,1.17l.51,1.93a3.2,3.2,0,0,0,2.39-3.1ZM17.91,31a1.23,1.23,0,0,1-1.38-.57l-1.73,1a3.22,3.22,0,0,0,3.62,1.49Zm-1.24-.07V28.68h-2v2.21Z"/><circle class="cls-2" cx="29" cy="13" r="6"/><path class="cls-3" d="M31.53,12.53H29.47V10.47A.46.46,0,0,0,29,10a.47.47,0,0,0-.47.47v2.06H26.47A.46.46,0,0,0,26,13a.44.44,0,0,0,.14.33.45.45,0,0,0,.33.14h2.06v2.06a.45.45,0,0,0,.14.33A.44.44,0,0,0,29,16a.47.47,0,0,0,.47-.47V13.47h2.06A.46.46,0,0,0,32,13,.47.47,0,0,0,31.53,12.53Z"/></svg>
